X: 13241
T: The Highland Lamentation
C: James Oswald
%R: air, waltz
B: James Oswald "The Caledonian Pocket Companion" v.1 b.3 p.24 #1
S: https://ia800501.us.archive.org/18/items/caledonianpocket01rugg/caledonianpocket01rugg_bw.pdf
Z: 2020 John Chambers <jc:trillian.mit.edu>
M: 3/4
L: 1/8
K: D
|: "_Slow"\
d4 (Tf>e) | d4 (Tf>e) | (d2 c2) B2 | {B}A3 G F2 |\
G4 F2 | (E2 F2) A2 | B2 (d<B) (A<F) | {F}TE4 D2 |\
(D2 E2) F2 | A4 B2 | (dcd)e(fg) |
{f}e4 f>a |\
(b2 a2) A2 | B4 d2 | A2 (g<f) (Te>d) | d6 ::\
f2 e2 d2 | A3 B (de) | (f>e)(e>d)(d>A) | A6 |\
(g2 f2) e2 | B3 c (d/e/f) |
(g>f)(f>e)(e>d) | B6 |\
f2 e2 d2 | A3 B de | (f>e)(d>e)(f>a) | {a}b4 a2 |\
(ba)(gf)(ed) | (=c2 B2) d2 | A2 (g<f) Te>d | d6 :|
|:\
d4 (Tb>a) | a4 (Te>d) | d4 (Tb>a) | a4 z2 |\
e2 d'2 c'2 | b4 Ta>f | (e2 f2) a2 | {a}b4 a2 |\
d'3 c' b2 | a4 b2 | (a<b) (a<f) (Te>d) |
e4 d'2 |\
{d'}c'3 b Tb>a | .b2 .d'2 z2 | A2 (g<f) (Te>d) | d6 ::\
d2 (F/E/D) (F/E/D) | f2 (F/E/D) (F/E/D) | (a<f)(e<d)(B<A) | F4 z2 |
E4 (D/E/F) | E4 F2 | (AB) (dB) (AG) | {G}E4 z2 |\
D4 (f/e/d) | d4 (f/e/d) | (e2 f2) a2 | {a}b4 a2 |\
=c4 z2 | .B2 .d2 z2 | A2 (g<f) (Te>d) | d6 :|


